X:140
T: Tripping on the Mountain
S: Treoir
Z: B.Black
M: 2/4
L: 1/8
R: polka
K: D
f/e/ |dA FA | d>c d/e/f/e/ |dA FA | BE Ef/e/ |
dA FA |dg f>e |d/B/A/F/ A/B/d/e/ | fd d :|
f/g/ |af eg |fd d/e/f/g/ |af g/f/ga/ | be ef/>g |
af ge |fd ff/e/ |d/B/A/F/ A/B/d/e/ | fd d :|
